<?xml version="1.0" encoding="UTF-8"?>
<map version="1.10" tiledversion="1.10.2" orientation="orthogonal" renderorder="right-down" width="7" height="6" tilewidth="16" tileheight="16" infinite="0" backgroundcolor="#161420" nextlayerid="3" nextobjectid="1">
 <properties>
  <property name="par" type="int" value="12"/>
  <property name="title" value="Around the Corner"/>
 </properties>
 <tileset firstgid="1" source="tiles.tsx"/>
 <layer id="1" name="floor" width="7" height="6">
  <data encoding="csv">
0,2,2,2,8,2,2,
0,2,1,1,1,1,8,
0,2,1,1,1,1,2,
2,8,1,1,2,1,2,
2,3,1,7,1,1,2,
2,2,2,2,2,8,2
</data>
 </layer>
 <layer id="2" name="things" width="7" height="6">
  <data encoding="csv">
0,0,0,0,0,0,0,
0,0,0,0,0,0,0,
0,0,0,4,0,0,0,
0,0,0,0,0,0,0,
0,0,0,0,6,0,0,
0,0,0,0,0,0,0
</data>
 </layer>
</map>
